svg/crypto/avalanche_AVAX_line.svg

<?xml version="1.0" encoding="UTF-8"?>
<svg width="24px" height="24px" viewBox="0 0 24 24" version="1.1" xmlns="http://www.w3.org/2000/svg" xmlns:xlink="http://www.w3.org/1999/xlink">
    <title>avalanche_AVAX_line</title>
    <g id="页面-1" stroke="none" stroke-width="1" fill="none" fill-rule="evenodd">
        <g id="Business" transform="translate(-48.000000, -384.000000)">
            <g id="avalanche_AVAX_line" transform="translate(48.000000, 384.000000)">
                <path d="M24,0 L24,24 L0,24 L0,0 L24,0 Z M12.5934901,23.257841 L12.5819402,23.2595131 L12.5108777,23.2950439 L12.4918791,23.2987469 L12.4918791,23.2987469 L12.4767152,23.2950439 L12.4056548,23.2595131 C12.3958229,23.2563662 12.3870493,23.2590235 12.3821421,23.2649074 L12.3780323,23.275831 L12.360941,23.7031097 L12.3658947,23.7234994 L12.3769048,23.7357139 L12.4804777,23.8096931 L12.4953491,23.8136134 L12.4953491,23.8136134 L12.5071152,23.8096931 L12.6106902,23.7357139 L12.6232938,23.7196733 L12.6232938,23.7196733 L12.6266527,23.7031097 L12.609561,23.275831 C12.6075724,23.2657013 12.6010112,23.2592993 12.5934901,23.257841 L12.5934901,23.257841 Z M12.8583906,23.1452862 L12.8445485,23.1473072 L12.6598443,23.2396597 L12.6498822,23.2499052 L12.6498822,23.2499052 L12.6471943,23.2611114 L12.6650943,23.6906389 L12.6699349,23.7034178 L12.6699349,23.7034178 L12.678386,23.7104931 L12.8793402,23.8032389 C12.8914285,23.8068999 12.9022333,23.8029875 12.9078286,23.7952264 L12.9118235,23.7811639 L12.8776777,23.1665331 C12.8752882,23.1545897 12.8674102,23.1470016 12.8583906,23.1452862 L12.8583906,23.1452862 Z M12.1430473,23.1473072 C12.1332178,23.1423925 12.1221763,23.1452606 12.1156365,23.1525954 L12.1099173,23.1665331 L12.0757714,23.7811639 C12.0751323,23.7926639 12.0828099,23.8018602 12.0926481,23.8045676 L12.108256,23.8032389 L12.3092106,23.7104931 L12.3186497,23.7024347 L12.3186497,23.7024347 L12.3225043,23.6906389 L12.340401,23.2611114 L12.337245,23.2485176 L12.337245,23.2485176 L12.3277531,23.2396597 L12.1430473,23.1473072 Z" id="MingCute" fill-rule="nonzero"></path>
                <path d="M16.3159,12.873 C16.8681957,11.9164783 18.212824,11.8748904 18.8339306,12.7482363 L18.914,12.873 L22.048,18.3012 C22.6030962,19.2627385 21.9571938,20.455416 20.8801637,20.545738 L20.7489,20.5512 L14.481,20.5512 C13.3707115,20.5512 12.6607559,19.3955047 13.1210929,18.4176087 L13.182,18.3012 L16.3159,12.873 Z M10.8159,3.34668 C11.3681957,2.39015826 12.712824,2.34857036 13.3339306,3.22191629 L13.414,3.34668 L15.9268,7.69887 C16.16791,8.11656 16.192021,8.621487 15.999133,9.0566244 L15.9268,9.19887 L9.80551,19.8012 C9.56191909,20.2231091 9.13052653,20.4977455 8.65147506,20.5441925 L8.50647,20.5512 L3.481,20.5512 C2.37071154,20.5512 1.66076516,19.3955047 2.12105839,18.4176087 L2.18196,18.3012 L10.8159,3.34668 Z M17.615,14.623 L15.347,18.5512 L19.8829,18.5512 L17.615,14.623 Z M12.115,5.09668 L4.34702,18.5512 L8.2178,18.5512 L14.0504,8.44887 L12.115,5.09668 Z" id="形状" fill="#09244B"></path>
            </g>
        </g>
    </g>
</svg>

<svg xmlns="http://www.w3.org/2000/svg" width="24" height="24"><g fill="none" fill-rule="evenodd"><path d="M24 0v24H0V0h24ZM12.593 23.258l-.011.002-.071.035-.02.004-.014-.004-.071-.035c-.01-.004-.019-.001-.024.005l-.004.01-.017.428.005.02.01.013.104.074.015.004.012-.004.104-.074.012-.016.004-.017-.017-.427c-.002-.01-.009-.017-.017-.018Zm.265-.113-.013.002-.185.093-.01.01-.003.011.018.43.005.012.008.007.201.093c.012.004.023 0 .029-.008l.004-.014-.034-.614c-.003-.012-.01-.02-.02-.022Zm-.715.002a.023.023 0 0 0-.027.006l-.006.014-.034.614c0 .012.007.02.017.024l.015-.002.201-.093.01-.008.004-.011.017-.43-.003-.012-.01-.01-.184-.092Z"/><path fill="#09244B" d="M16.316 12.873a1.5 1.5 0 0 1 2.518-.125l.08.125 3.134 5.428a1.5 1.5 0 0 1-1.168 2.245l-.131.005H14.48a1.5 1.5 0 0 1-1.36-2.133l.061-.117 3.134-5.428Zm-5.5-9.526a1.5 1.5 0 0 1 2.518-.125l.08.125 2.513 4.352a1.5 1.5 0 0 1 .072 1.358l-.072.142L9.806 19.8a1.5 1.5 0 0 1-1.155.743l-.145.007H3.481a1.5 1.5 0 0 1-1.36-2.133l.061-.117 8.634-14.954Zm6.799 11.276-2.268 3.928h4.536l-2.268-3.928Zm-5.5-9.526L4.347 18.55h3.87L14.05 8.45l-1.935-3.352Z"/></g></svg>
